X: 35184
T: Room 3.24
R: jig
M: 6/8
K: Amajor
K:F#min
F2F AFE|FcA BAB|cfc e2e|fec BAB|
c2F FEF|FEF A2B|cfc efg|aff f3:|
|:ecf e za-|a2e fec|B2B BAB|cec Bcd|
ecf e za-|a2e fec|a2a afe|1 fec Bcd:|2 fec B3||

